X:1
T:Title
%%score { 1 | 2 }
L:1/8
M:4/4
K:Eb
V:1 treble nm="Grand Piano"
V:2 bass 
V:1
 z4 z2[Q:1/4=100] EF | G2 G2 [FA]2 [EG]>[DFA] | [EAc]2 [EGB]2 z2 [B,EG][B,EG] | %3
 [DB]2 [DF]2 [DB]2 [DA]2 | G4 z2 EF | G2 G2 [FA]2 [EG]>[DFA] | [EAc]2 [EGB]2 z2 [B,EG][B,EG] | %7
 [B,DB]2 [DA]2 [B,DG]2 [A,DF]2 |[M:3/4] [G,E]4 z2 |[M:1/4] [B,GB][B,GB] | %10
[M:4/4] [Bd]2 [Ac]2 [GB]2 [FA]2 | [EG]>[FA] [GB]2 z2 [GB][Ac] | [EGB]2 [B,FA]2 [B,EG]2 [A,DF]2 | %13
 [G,E]>[A,EF] [B,EG]2 z2 [B,GB][B,GB] | [Fd]2 [Ac]2 [GB]2 [FA]2 | [EG]>[FA] [GB]2 z2 [EB][Ec] | %16
 [EB]2 [DA]2 [DG]2 [DF]2 |[M:3/4] E4 z2 |] %18
V:2
 z4 z2 [E,G,][E,A,E] | [E,B,E]2 [E,B,E]2 [B,,B,]2 [B,,B,]>B,, | E,2 E,2 z2 E,E, | %3
 [B,,B,]2 [B,,B,]2 [B,,F,]2 [B,,B,]2 | [E,B,E]4 z2 [E,G,][E,A,E] | %5
 [E,B,E]2 [E,B,E]2 [B,,B,]2 [B,,B,]>B,, | E,2 E,2 z2 E,E, | B,,2 [B,,F,]2 B,,2 B,,2 | %8
[M:3/4] E,4 z2 |[M:1/4] E,E, |[M:4/4] [B,,B,]2 [B,,B,]2 [B,,B,]2 [D,B,]2 | %11
 [E,B,]>[E,B,] [E,E]2 z2 [E,E][E,E] | B,,2 B,,2 B,,2 B,,2 | E,>E, E,2 z2 E,E, | %14
 [B,,B,]2 [B,,B,]2 [B,,B,]2 [D,B,]2 | [E,B,]>[E,B,] [E,E]2 z2 [E,G,][E,A,] | %16
 [B,,G,]2 [B,,F,]2 [B,,B,]2 [B,,A,]2 |[M:3/4] [E,G,]4 z2 |] %18

